X: 1
T: Kritikos Syrtos [Dm]
O: Greece
C: Trad.
Z: http://swissnet.ai.mit.edu/~jaffer/CFO.html
M: 4/4
L: 1/8
K: Ddor
"Dm" D8 \
|:"Dm"D G2 F G2 FE | D F2 E F2 ED | "C" C F2 E FG EC | "Dm" DEFG "G(m)"AGGz |
| "Dm"D G2 F G2 FE | D F2 E F2 ED | "C" C F2 E FG EC | "Dm" D3C B,C D2 :|
